X:1
T:Hans Leo Hassler (1564-1612)
T:Ich brinn und bin entzündt
%%score [ 1 2 3 4 ]
L:1/8
Q:1/4=120
M:2/2
K:C
V:1 treble nm="Discant" snm="Discant"
V:2 treble nm="Alt" snm="Alt"
V:3 treble nm="Tenor" snm="Tenor"
V:4 treble nm="Bass" snm="Bass"
V:1
 x8 ||[K:G][M:2/2] z2 E2 E4 | z2 E2 E2 E2 | E4 E4 | A6 A2 | ^G4 z2 !courtesy!^G2 | %6
w: |Ich brinn,|ich brinn und|bin ent-|zündt gen|dir, doch|
w: ||||||
[M:2/2] A2 B2 c2 B4 | A4 ^G2 A8 | z2 E2 E4 | z2 E2 E2 E2 | E4 E4 | A6 A2 | ^G4 z2 !courtesy!^G2 | %13
w: nicht auß Lieb, magst|glau- ben mir,|Ich brinn,|ich brinn und|bin ent-|zündt gen|dir, doch|
w: |||||||
 A2 B2 c2 B4 | A4 ^G2 A4 | z2 c2 d3 e | c3 d BG c4 | B2 x6 | c4 z2 e4 | d4 c4 x4 | B4 B2 A4 | %21
w: nicht auß Lieb, magst|glau- ben mir,|weyl du bist|al- ler Falsch * *|heit|vol, nicht|werth, das|ich dich lie-|
w: ||||||||
 A4 ^G4 | z2 ^G2 G4 | z2 ^G2 G2 A2 | B2 c2 x4 | A4"^(  )" G4 | G4 z4 | z2 c2 A2 B2 | c6 B4 | %29
w: ben soll.|Dein falsch,|dein falsch, böß,|un- ge-|trew- es|Hertz|hat mir ver-|jagt all|
w: ||||||||
 A4 ^G2 A4 | z2 E2 x4 | E2 =F2 E4 | z2 A2 A2 A2 | c4 A4 | B4 B4 x2 | ^G8 x6 | %36
w: Lie- bes- schertz.|Brinn|drumb nit mehr,||* auß|Lieb gen|dir,|
w: |||brinn drumb nit|mehr *|||
[M:3/1]"^[  ]"[Q:1/4=480] B12 B4 B8 | c16 A8 |[M:3/1][Q:1/4=480][Q:1/4=480][Q:1/4=480] A12 A4 A8 | %39
w: son- dern aus|Zo- ren,|son- dern aus|
w: |||
[Q:1/4=480] B16 G8 | G12 G4 G8 |[M:2/2]"^[   ]"[Q:1/4=120] c4 B2 B3 x15 | A A4 ^G2 A4 | z2 E2 x4 | %44
w: Zo- ren,|son- dern auß|Zo- ren für|* * und für.|Brinn|
w: |||||
[M:2/2][Q:1/4=120][Q:1/4=120][Q:1/4=120] E2 =F2 E4 |[Q:1/4=120] z2 A2 A2 A2 | c4 A4 x2 | B4 B4 x6 | %48
w: drumb nit mehr,|brinn drumb nit|mehr auß|Lieb gen|
w: ||||
 ^G8 x16 |[M:3/1]"^[  ]"[Q:1/4=480][Q:1/4=480] B12 B4 B8 |[M:3/1][Q:1/4=480][Q:1/4=480] c16 A8 | %51
w: dir,|son- dern auß|Zo- ren,|
w: |||
[Q:1/4=480] A12 A4 A8 | B16 G8 | G12 G4 G8 |[M:2/2]"^[   ]"[Q:1/4=120] c4 B2 B3 x15 | %55
w: son- dern aus|Zo- ren,|son- dern auß|Zo- ren für|
w: ||||
 A A4 ^G2"^-" !fermata!x16 |[M:4/2][Q:1/4=15][Q:1/4=15] x16 | %57
w: * * und||
w: ||
[M:2/2][Q:1/4=120]"^Antwort"[Q:1/4=15][Q:1/4=120] z4"^Brinn und zürne nur immer fort" E6 x6 | %58
w: Brinn|
w: |
[Q:1/4=120][Q:1/4=15] E2 F2 FG A6 x4 |[Q:1/4=120] A2 ^G4 z2 x2 | B2 x10 |[M:2/2] c2 A4 d4 | %62
w: und zür- ne nur im-|mer- fort,|mich|hon be- trogn|
w: ||||
 B4 G3 E | A4 ^G2 A8 | z4 E6 | E2 F2 FG A6 | A2 ^G4 z2 x2 | B2 x10 | c2 A4 d4 | B4 G3 E | %70
w: dein fal- *|* sche Wort,|Brinn|und zür- ne nur im-|mer- fort,|mich|hon be- trogn|dein fal- *|
w: ||||||||
 A4 ^G2 A4 | e4 d4 | c4 B4 | A4 G4 | F4 x4 | EFGA B4 | z4 z2 E2 | F3 G A2 E2 | G2 G2 F2 E2 | %79
w: * sche Wort|als du|be- gerst|mein trew-|es|Hertz, * * * *|als|du be- gerst mein|trew- es Herz, mein|
w: |||||||||
 GF E4 ^D2 | E2 B2 G2 A2 | B4 z4 | z2 B2 c2 A2 | ^G4 z4 | z2 B2 c2 d2 | e4 d2 d3 | c c4 B2 x | %87
w: trew * * es|Hertz, und tribst doch|nur|auß mir dein|Schertz,|und tribst doch|nur auß mir|* * dein|
w: ||||||||
 c4 z2 e2 | e3 d c2 B2 | A4 A4 | ^G4 z2 A2 | B2 c2 d4 | G2 c2 B A G F | E2 A4 ^G2 | %94
w: Schertz, achst|du dann nichts mein|Lieb und|Gunst, acht|ich vil min-|der dein Zorn * * *|* * und|
w: |||||||
[M:3/1]"^[  ]"[Q:1/4=480] A16 A8 | A16 B8 | c12 c4 A8 | B16 B8 |[M:3/1][Q:1/4=480] ^G16 B8 | %99
w: Brunst, drumb|brinn und|zür- ne so|lang du|wilt, dann|
w: |||||
[Q:1/4=480][Q:1/4=480] B16 c8 |[Q:1/4=480] A16 B8 | G8 A8 ^G8 | A16 A8 | A16 B8 | c12 c4 A8 | %105
w: mir eins|wie das|an- * der|gilt, drumb|brinn und|zür- ne so|
w: ||||||
 B16 B8 |[M:2/2]"^[   ]"[Q:1/4=120] ^G4 B4 x16 | B6 c2 x16 | A6 B2 | GE A4 ^G2 | %110
w: lang du|wilt, dann|mir eins|wie das|an * * der|
w: |||||
"^-" !fermata!x16 |] x16 | x16 |] %113
w: |||
w: |||
V:2
 x8 ||[K:G][M:2/2] z2 C2 C4 | z2 C2 C2 C2 | C6 E2 | =F4 E4 | E4 z2 E2 |[M:2/2] E2 G4 =F4 | %7
w: |Ich brinn,|ich brinn und|bin ent-|zündt gen|dir, doch|nicht auß Lieb,|
w: |||||||
 D2 E2 E2 E8 | z2 C2 C4 | z2 C2 C2 C2 | C6 E2 | =F4 E4 | E4 z2 E2 | E2 G4 =F4 | D2 E2 E2 E4 | %15
w: magst glau- ben mir,|Ich brinn,|ich brinn und|bin ent-|zündt gen|dir, doch|nicht auß Lieb,|magst glau- ben mir,|
w: ||||||||
 z2 A2 B3 B | A3 A G4 x2 | G4 x4 | G4 z2 c4 | B4 A4 x4 | G4 G2 =FE x2 | E4 D2 E2 | B,2 E4 z2 | %23
w: weyl du bist|al- ler Falsch-|heit|vol, nicht|werth, das|ich dich lie *|\- ben soll,|dein falsch,|
w: ||||||||
 B,2 E6 | E2 G2 G2 x2 | =F4 D4 | E2 E2 C2 D2 | E2 G2 =F2 D2 | G4 G4 x2 | E4 E4 x2 | E4 z2 ^C2 | %31
w: dein falsch,|bös, un- ge-|trew- es|Hertz hat mir ver-|jagt, hat mir ver-|jagt all|Lie- bes-|schertz. Brinn|
w: ||||||||
 ^C2 D2 !courtesy!^C4 | z2 E2 E2 F2 | A6 E2 | F4 F4 x2 | B8 x6 |[M:3/1]"^[  ]" ^G12 G4 G8 | %37
w: drumb nit mehr,||* auß|Lieb gen|dir,|son- dern aus|
w: |brinn drumb nit|mehr *||||
 A16 F8 |[M:3/1] F12 F4 F8 | G16 E8 | E12 E4 E8 |[M:2/2]"^[   ]" G4 =F4 x16 | E6 E2 x3 | %43
w: Zo- ren,|||son- dern auß|Zo- ren|für und|
w: |son- dern aus|Zo- ren,||||
 E4 z2 ^C2 |[M:2/2] ^C2 D2 !courtesy!^C4 | z2 E2 E2 F2 | A6 E2 x2 | F4 F4 x6 | B8 x16 | %49
w: für. Brinn|drumb nit mehr,||* auß|Lieb gen|dir,|
w: ||brinn drumb nit|mehr *|||
[M:3/1]"^[  ]" ^G12 G4 G8 |[M:3/1] A16 F8 | F12 F4 F8 | G16 E8 | E12 E4 E8 | %54
w: son- dern auß|Zo- ren,|||son- dern auß|
w: ||son- dern aus|Zo- ren,||
[M:2/2]"^[   ]" G4 =F4 x16 | E6 E2 x15 |"^-" !fermata!x16 |[M:4/2]"^S" x16 |[M:2/2] z4 ^C6 x6 | %59
w: Zo- ren|für und|||Brinn|
w: |||||
 ^C2 D2 DE =C4 | D4 E4 x4 | z2 E2 x6 |[M:2/2] E4 F4 | D4 E4 x6 | E6 E2 x2 | E8 x4 | z4 ^C6 | %67
w: und zür- ne nur im-|mer- fort,|mich|hon be-|trogn dein|fal- sche|Wort,|Brinn|
w: ||||||||
 ^C2 D2 DE =C4 x2 | D4 E4 x2 | z2 E2 x4 | E4 F4 x2 | D4 E4 | E6 E2 | E4 z2 E2 | F3 G A2 E2 | %75
w: und zür- ne nur im-|mer- fort,|mich|hon be-|trogn dein|fal- sche|Wort als|du be- gerst mein|
w: ||||||||
 G2 G2 F2 E2 | D4 D4 | G2 E2 F2 F2 | ^G3 A B4 | z2 B,2 E2 C2 | D6 C2 | B,4 B,4 | ^G,2 B,2 E2 C2 | %83
w: trew- es Herz, als|du be-|gehrst mein trew- es|Hertz, * *||||* und triebst doch|
w: ||||als du be-|gerst mein|trew- es|Hertz * * *|
 B,4 z4 | z2 E2 C2 =F2 | E4 z4 x | z2 ^G2 A2 B2 | c4 A4 | G6 G2 | G4 z2 c2 | c3 B A2 G2 | %91
w: nur|auß mir dein|Schertz,|und tribst doch|nur auß|mir dein|Schertz, achst|du dann nichts mein|
w: ||||||||
 =F2 E4 D2 | E4 z2 E2 | G2 G2 =F4 | E4 z2 B,2 x16 | E4 E4 x16 |[M:3/1]"^[  ]" ^C16 E8 | E16 E8 | %98
w: Lieb und *|Gunst, acht|ich vil min-|der dein|Zorn und|Brunst, drum|brinn und|
w: |||||||
 A12 A4 A8 | F16 F8 |[M:3/1] B16 ^G8 | ^G16 A8 | F16"^(  )" G8 | E16 E8 | E16 E8 | E16 E8 | %106
w: zür- ne so|lang du|wilt, dann|mir eins|wie das|an- der|gilt, drumb|brinn und|
w: ||||||||
 A12 A4 A8 | F16 F8 |[M:2/2]"^[   ]" B4 ^G4 | ^G6 A2 | F6"^(  )" G2 x8 |] E6 E2 x8 | %112
w: zür- ne so|lang du|wilt, dann|mir eins|wie das|an- der|
w: ||||||
"^-" !fermata!x16 |] %113
w: |
w: |
V:3
"^:" x8 ||[K:G][M:2/2][K:treble-8] A4 A4 | z2 A2 A2 A2 | A3 B c2 B2 | cd c4 c2 | B4 z2 B2 | %6
w: |Ich brinn,|ich brinn und|bin * * ent-|zündt * * gen|dir, doch|
w: ||||||
[M:2/2][K:treble-8] c2 d2 e2 d2 x2 | c2 BA B2 B2 x6 | ^c8 | A4 A4 | z2 A2 A2 A2 | A3 B c2 B2 | %12
w: nicht auß Lieb, magst|glau * * * ben|mir,|Ich brinn,|ich brinn und|bin * * ent-|
w: ||||||
 cd c4 c2 | B4 z2 B2 x2 | c2 d2 e2 d2 x2 | c2 BA B2 B2 | ^c4 z2 e2 x2 | g3 g =f3 f | e4 d4 x2 | %19
w: zündt * * gen|dir, doch|nicht auß Lieb, magst|glau * * * ben|mir, weyl|du bist al- ler|Falsch- heit|
w: |||||||
 e4 g8 | e4 e4 x2 | d2 e2 c4 | A4 B4 | z2 B2 B4 | z2 B2 B2 c2 | d2 e2 x4 | cA c4 B2 | c2 c2 A2 B2 | %28
w: voll, nicht|Wert daß|ich dich lie-|ben soll.|Dein falsch,|dein Falsch, bös,|un- ge-|trew * * es|Hertz hat mir ver-|
w: |||||||||
 c2 e2 d2 d2 x2 | e4 d4 x2 | c4 B4 | ^c4 z2 A2 | A2 A2 A4 | z2 ^c2 c2 d2 | e2 =f2 e6 | %35
w: jagt, hat mir ver-|jagt all|Lie- bes-|schertz. Brinn|drumb nit mehr,||* auß Lieb|
w: |||||brinn drum nit|mehr * *|
 ^d^c !courtesy!^d2 d2 e8 |[M:3/1]"^[  ]" e12 e4 e8 | e16 d8 |[M:3/1][K:treble-8] d12 d4 d8 | %39
w: * * * gen dir,|son- dern aus|Zo- ren,||
w: |||son- dern aus|
 d16 c8 | c12 c4 c8 |[M:2/2]"^[   ]" e4 d4 x16 | c2 BA B2 B2 x3 | ^c4 z2 A2 | %44
w: |son- dern auß|Zo- ren|für * * * und|für. Brinn|
w: Zo- ren,|||||
[M:2/2][K:treble-8] A2 A2 A4 | z2 ^c2 c2 d2 | e2 =f2 e6 | ^d^c d2 d2 e8 |[M:3/1]"^[  ]" e12 e4 e8 | %49
w: drumb nit mehr,|brinn drumb nit|mehr aus Lieb|* * * gen dir,|son- dern auß|
w: |||||
[M:3/1][K:treble-8] e16 d8 | d12 d4 d8 | d16 c8 | c12 c4 c8 |[M:2/2]"^[   ]" e4 d4 x16 | %54
w: Zo- ren,|||son- dern aus|Zo- ren|
w: |son- dern aus|Zo- ren,|||
 c2 BA B2 B2 x16 |"^-" !fermata!x16 x7 |[M:4/2]"^:" x16 |[M:2/2][K:treble-8] A6 A2 x8 | %58
w: für * * * und|||Brinn und|
w: ||||
 A4 A3 c x8 | A6 A2 x2 | B4 z2 ^G2 x4 |[M:2/2][K:treble-8] ABcA d2 A2 x2 | B3 A G3 F | %63
w: zür- ne nur|im- mer-|fort, mich|hon * * * * be-|trogn * * *|
w: |||||
 E2 c2 B2 B2 x6 | ^c8 x2 | A6 A2 x4 | A4 A3 c x2 | A6 A2 x4 | B4 z2 ^G2 x2 | ABcA d2 A2 | %70
w: * dein fal- sche|Wort,|Brinn und|zür- ne nur|im- mer-|fort, mich|hon * * * * be-|
w: |||||||
 B3 A G3 F x2 | E2 c2 B2 B2 | ^c8 | z4 z2 A2 | B3 c d2 c2 | B4 A2 B2 | e4 ^d4 | e4 e4 | d4 c4 | %79
w: trogn * * *|* dein fal- sche|Wort|als|du be- gerst mein|trew- es, mein|tew- res|Hertz als|du be-|
w: |||||||||
 B4 A4 | G4 F4 | E4 z4 | z2 e2 c2 d2 | e4 z4 | z2 B2 c2 A2 | ^G2 e2 e2 g2 x | g4 =f4 | e4 d4 | %88
w: gerst mein|trew- es|Hertz,|und tribst doch|nur|auß mir dein|Schertz, und tribst doch|nur auß|mir dein|
w: |||||||||
 e2 g2 e3 =f | g4 e4 | c4 A4 | B4 z2 c2 | d2 c4 B2 | c2 G4 d2 | c4 B4 x16 |[M:3/1]"^[  ]" A16 c8 | %96
w: Scherz, achst du dann|nichts mein|Lieb und|Gunst, acht|ich viel min-|der dein *|Zorn und|Brunst, drum|
w: ||||||||
 c16 B8 | e12 e4 e8 | ^d16 d8 |[M:3/1][K:treble-8] e16 e8 | e16 e8 | d16 d8 | c16 B8 | %103
w: brinn und|zür- ne so|lang du|wilt, dann|mir eins|wie das|an- der|
w: |||||||
 ^c16"^(  )" =c8 | c16 B8 | e12 e4 e8 | ^d16 d8 |[M:2/2]"^[   ]" e4 e4 x16 | e6 e2 |"^(  )" d6 d2 | %110
w: gilt, drumb|brinn und|zür- ne so|lang du|wilt, dann|mir eins|wie das|
w: |||||||
 c4 B4 x8 |]"^-" !fermata!x16 | x16 |] %113
w: an- der|||
w: |||
V:4
 x8 ||[K:G][M:2/2][K:bass] z4 z2 A,,2 | A,,4 z2 A,,2 | A,,2 A,,2 A,2 G,2 | =F,4 A,4 | E,4 z2 E,2 | %6
w: |Ich|brinn, ich|brinn und bin ent-|zündt gen|dir, doch|
w: ||||||
[M:2/2] A,2 G,2 C,2 D,2 x2 | =F,4 E,4 x6 | A,,8 | z4 z2 A,,2 | A,,4 z2 A,,2 | A,,2 A,,2 A,2 G,2 | %12
w: nicht auß Lieb, magst|glau- ben|mir,|Ich|brinn, ich|brinn und bin ent-|
w: ||||||
 =F,4 A,4 | E,4 z2 E,2 x2 | A,2 G,2 C,2 D,2 x2 | =F,4 E,4 | A,,4 A,4 x2 | G,3 E, =F,3 D, | %18
w: zündt gen|dir, doch|nicht auß Lieb, magst|glau- ben|mir, weyl|du bist al- ler|
w: ||||||
 E,3 =F, G,2 G,,2 x2 | C,4 C4 x4 | G,4 A,4 x2 | E,4 G,4 | A,4 =F,4 | E,4 z2 E,2 | E,4 z2 E,2 | %25
w: Falsch- * * heit|voll, nicht|Wert, daß|ich dich|lie- ben|soll. Dein|falsch, dein|
w: |||||||
 E,2 A,2 G,2 E,2 | =F,4 G,4 | C,4 z4 | z2 C,2 =F,2 G,2 x2 | C, D, E,"^(  )" F, G,2 G,,2 x2 | %30
w: falsch, bös, un- ge-|trew- es|Hertz|hat mir ver-|jagt * * * * all|
w: |||||
 A,,B,,C,D, E,2 E,2 | A,,4 z2 A,,2 | A,,2 D,2 A,,4 | z2 A,2 A,2 D,2 | A,4 C4 x2 | B,4 B,4 x6 | %36
w: Lie * * * * bes-|scherz. Brinn|drum nit mehr,||* auß|Lieb gen|
w: |||Brinn drum nit|mehr *||
 E,8 x16 |[M:3/1]"^[  ]" E,12 E,4 E,8 | A,16 D,8 |[M:3/1] D,12 D,4 D,8 | G,16 C,8 | C,12 C,4 C,8 | %42
w: dir|son- dern aus|Zo- ren,|||son- dern auß|
w: |||son- dern aus|Zo- ren,||
[M:2/2]"^[   ]" C,4 D,4 x3 | E,6 E,2 | A,,4 z2 A,,2 |[M:2/2] A,,2 D,2 A,,4 | z2 A,2 A,2 D,2 x2 | %47
w: Zo- ren|für und|für. Brinn|drum nit mehr,||
w: ||||Brinn drum nit|
 A,4 C4 x6 | B,4 B,4 x16 | E,8 x16 |[M:3/1]"^[  ]" E,12 E,4 E,8 |[M:3/1] A,16 D,8 | D,12 D,4 D,8 | %53
w: * auß|Lieb gen|dir,|son- dern auß|Zo- ren,||
w: mehr *|||||son- dern aus|
 G,16 C,8 | C,12 C,4 C,8 |[M:2/2]"^[   ]" C,4 D,4 x15 | E,6 E,2 x8 |"^-" !fermata!x16 | %58
w: |son- dern auß|Zo- ren|für und||
w: Zo- ren,|||||
[M:4/2] x16 |[M:2/2] z4 A,,6 | A,,2 D,2 D,C, =F,6 | =F,2 E,4 E,4 |[M:2/2] A,4 D,4 | G,4 E,4 x6 | %64
w: |Brinn|und zür- ne nur im-|mer- fort, mich|hon be-|trogn dein|
w: ||||||
 C,3 D, E,2 E,2 x2 | A,,8 x4 | z4 A,,6 | A,,2 D,2 D,C, =F,6 | =F,2 E,4 E,4 | A,4 D,4 | G,4 E,4 x2 | %71
w: fal- * * sche|Wort,|Brinn|und zür- ne nur im-|mer- fort, mich|hon be-|trogn dein|
w: |||||||
 C,3 D, E,2 E,2 | A,,8 | z8 | z4 z2 A,,2 | B,,3 C, D,2 B,,2 | C,4 B,,4 | E,8 | z4 z2 A,,2 | %79
w: fal- * * sche|Wort||als|du be- gerst mein|trew- es|Herz,||
w: |||||||als|
 B,,3 C, D,2 A,,2 | E,4 B,,4 | E,4 z4 | z2 E,2 A,2 =F,2 | E,4 z4 | z2 E,2 C,2 =F,2 | %85
w: |||und tribst doch|nur|auß mir dein|
w: du be- gehrst mein|trew- es|Hertz,||||
 E,2 E,2 A,2 G,2 x | C,4 D,4 | E,3 =F, G,2 G,2 | C,4 z2 C2 | C3 G, A,2 E,2 | A,4 =F,4 | %91
w: Schertz, und tribst doch|nur auß|mir * * dein|Scherz, achst|du dann nichts mein|Lieb und|
w: ||||||
 E,4 z2 A,2 | G,2 E,2 D,4 | C,4 G,,4 | A,, B,, C, D, E,2 E,2 x16 |[M:3/1]"^[  ]" A,,16 A,8 | %96
w: Gunst, acht|ich viel min-|der dein|Zorn * * * * und|Brunst, drum|
w: |||||
 A,16 ^G,8 | A,12 A,4 C8 | B,16 B,8 |[M:3/1] E,16 E,8 | E,16 C,8 | D,16 B,,8 | C,8 A,,8 E,8 | %103
w: brinn und|zür- ne so|lang du|wilt, dann|mir ein|wie das|an- * der|
w: |||||||
 A,,16 A,8 | A,16 ^G,8 | A,12 A,4 C8 | B,16 B,8 |[M:2/2]"^[   ]" E,4 E,4 x16 | E,6 C,2 | D,6 B,,2 | %110
w: gilt, drumb|brinn und|zür- ne so|lang du|wilt, dann|mir eins|wie das|
w: |||||||
 C,3 D, E,2 E,2 x8 |]"^-" !fermata!x16 | x16 |] %113
w: an- * * der|||
w: |||

